svg/fluentui-system-icons/ic_fluent_calendar_assistant_20_filled.svg

<svg width="20" height="20" viewBox="0 0 20 20" fill="none" xmlns="http://www.w3.org/2000/svg">
<path d="M17 7V9.59971C16.2499 9.21628 15.4002 9 14.5 9C11.4624 9 9 11.4624 9 14.5C9 15.4002 9.21628 16.2499 9.59971 17H5.5C4.11929 17 3 15.8807 3 14.5V7H17ZM14.5 3C15.8807 3 17 4.11929 17 5.5V6H3V5.5C3 4.11929 4.11929 3 5.5 3H14.5ZM14.5 19C16.9853 19 19 16.9853 19 14.5C19 12.0147 16.9853 10 14.5 10C12.0147 10 10 12.0147 10 14.5C10 16.9853 12.0147 19 14.5 19ZM13.4083 11.834C13.4788 11.6339 13.6678 11.5 13.88 11.5H15.06C15.2207 11.5 15.3716 11.5773 15.4656 11.7076C15.5596 11.838 15.5852 12.0056 15.5343 12.1581L15.2537 13H16C16.1829 13 16.3512 13.0999 16.4389 13.2604C16.5265 13.4209 16.5195 13.6165 16.4206 13.7704L14.1706 17.2704C14.0372 17.4779 13.7723 17.5571 13.5468 17.4569C13.3214 17.3566 13.2028 17.1069 13.2675 16.8688L13.7758 15H13C12.8378 15 12.6857 14.9213 12.592 14.789C12.4982 14.6566 12.4745 14.487 12.5284 14.334L13.4083 11.834Z" fill="#212121"/>
</svg>

<svg xmlns="http://www.w3.org/2000/svg" width="20" height="20"><path d="M17 7v2.6A5.5 5.5 0 0 0 9.6 17H5.5A2.5 2.5 0 0 1 3 14.5V7h14Zm-2.5-4A2.5 2.5 0 0 1 17 5.5V6H3v-.5A2.5 2.5 0 0 1 5.5 3h9Zm0 16a4.5 4.5 0 1 0 0-9 4.5 4.5 0 0 0 0 9Zm-1.092-7.166a.5.5 0 0 1 .472-.334h1.18a.5.5 0 0 1 .474.658l-.28.842H16a.5.5 0 0 1 .42.77l-2.25 3.5a.5.5 0 0 1-.902-.401L13.776 15H13a.5.5 0 0 1-.472-.666l.88-2.5Z"/></svg>
